X: 1
T: Iti Milvanon
O: Israel
Z: John Chambers <jc@trillian.mit.edu>
M: 4/4
L: 1/8
K: Dm
|: df  | "Gm"g6 a{ba}g/f/ | a2 g4 fe | "Dm"f2 f2 "C"f2 ed | "Dm"d6 :|
|: Ac | "Dm"d6 e/f/e/d/ | d6 ef | "Gm"gf ef- "C"f2 ec | "Dm"d6 :|
%%sep 0 1 8cm
